X: 40
T:Kerry Reel, The
T:Kerryman, The
T:Green Fields of Rossbeigh, The
M:C|
L:1/8
R:Reel
K:EDor
dc[|:BE~E2 BAFB|ABde fded|BE~E2 BAFA|BFAF E2FA|!
B2dB BAFB|ABde fded|BE~E2 BAFA|1BFAF E2dc:|2BFAF E2FA|!
|:(3Bcd ef gfge|dB~B2 dBAd|Bdef ~g3e|dBAF E2ef|!
g2ga gfed|f2fg fedB|ABde fdec|1dBAF E2FA:|2dBAF E2dc|]!
